X:1
T:Third tune
T:Nine Psalm Tunes for Archbishop Parker's Psalter
T:Thomas Tallis  c. 1505-1585
T:Psalm 2
T:THIRD TUNE
C:Thomas Tallis
%%score [ ( 1 2 ) ( 3 4 ) ]
L:1/8
M:3/4
K:C
V:1 treble nm="MusicXML Part"
V:2 treble 
V:3 bass nm="MusicXML Part"
V:4 bass 
V:1
 E2 E2 E2 | E6 | E2 A2 A2 | ^G4 G2 | ^G4 ^F2 |[M:2/4] ^G2 A2 |[M:3/4] ^G6 | ^G2 G2 G2 | ^G6 | %9
w: 1.~Why fum'th in|fight|the Gen- tiles|spite, in|fu- ry|rag- ing|stout?|Why tak'th in|hond|
w: 3.~Let us they|say|break down their|ray of|all their|bonds and|cords.|We will re-|nounce|
w: 5.~Then shall his|ire|speak all in|fire to|them a-|gain there-|fore.|He shall with|threat|
w: 7.~Gods words de-|creed,|I (Christ) will|spread for|God thus|said to|me.|My son I|say|
w: 9.~With i- ~ron|rod|as might- y|God, all|re- bels|shalt thou|bruise|and break them|all|
w: 11.~The lord in|fear:|your ser- vice|bear, with|dread to|him re-|joice.|Let ra- ges|be|
 B2 A2 A2 | ^G4 G2 | ^G4 G2 |[M:2/4] A2 A2 |[M:4/4] ^G6 =G2 |[M:3/4] (G3 A) B2 | c4 B2 | %16
w: the peo- ple|fond, vain|things to|bring a-|bout? The|Kings _ a-|rise the|
w: that they pro-|nounce, their|loores as|state- ly|lords. But|God _ of|might in|
w: their ma- lice|beat, in|his dis-|pleas- ure|sore. Yet|am _ I|set a|
w: thou art, this|day, I|have be-|got- ten|thee. Ask|thou _ of|me, I|
w: in pie- ces|small, as|sherds the|pot- ters|use. Be|wise _ there-|for, ye|
w: re- sist not|ye, him|serve with|joy- full|voice. The|son _ kiss|ye lest|
[M:2/4] A2 A2 |[M:3/4] G4 G2 | F4 E2 |[M:2/4] E2 D2 |[M:4/4] E6 E2 |[M:3/4] (A3 G) F2 | E4 G2 | %23
w: Lords de-|vise, in|coun- sels|met there-|to a-|gainst- _ the|Lord with|
w: heav'n so|bright, shall|laugh them|all to|scorn. The|Lord _ on|high shall|
w: king so|great, on|Si- on|hill full|fast. Though|me _ they|kill, yet|
w: will give|thee, to|rule all|Gent- iles|londes. Thou|shalt _ pos-|sess in|
w: kings the|more, re-|ceive ye|wis- doms|lore. Ye|jud– _ ges|strong of|
w: wroth he|be, loose|not the|way of|rest. For|when _ his|ire is|
 (c3 B) A2 | G4 E2 |[M:4/4] A2 A2 A2 (E^F) | ^G8 |] %27
w: false _ ac-|cord, a-|gainst his Christ they _|go.|
w: them _ de-|fy, they|shall be once for _|lorn.|
w: will _ that|hill, my|law and word out– _|cast.|
w: sure– _ nes-|se, the|world how wide it _|stondes.|
w: right _ and|wrong, ad-|vise you now be– _|fore.|
w: set _ on|fire, who|trust in him be _|bless'd.|
V:2
 B,2 B,2 B,2 | B,6 | B,2 C2 D2 | E4 E2 | E4 ^D2 |[M:2/4] E2 E2 |[M:3/4] E6 | E2 E2 E2 | E6 | %9
 E2 E2 D2 | E4 E2 | E4 E2 |[M:2/4] E2 E2 |[M:4/4] E6 E2 |[M:3/4] E4 F2 | G4 G2 |[M:2/4] E2 E2 | %17
[M:3/4] E4 E2 | C4 C2 |[M:2/4] A,2 A,2 |[M:4/4] A,6 C2 |[M:3/4] E4 C2 | C4 C2 | C4 C2 | C4 C2 | %25
[M:4/4] A,2 D2 C2 C2 | B,8 |] %27
V:3
 E,2 G,2 G,2 | G,6 | G,2 A,2 A,2 | B,4 B,2 | B,4 B,2 |[M:2/4] B,2 C2 |[M:3/4] B,6 | E,2 B,2 B,2 | %8
 B,6 | G,2 A,2 A,2 | B,4 B,2 | B,4 B,2 |[M:2/4] C2 A,2 |[M:4/4] B,6 B,2 |[M:3/4] (B,3 C) D2 | %15
 E4 D2 |[M:2/4] C2 C2 |[M:3/4] B,4 G,2 | A,4 E,2 |[M:2/4] F,2 F,2 |[M:4/4] E,6 A,2 | %21
[M:3/4] (C3 B,) A,2 | G,4 E,2 | (A,3 G,) F,2 | E,4 G,2 |[M:4/4] F,2 D,2 E,2 E,2 | E,8 |] %27
V:4
 E,2 E,2 E,2 | E,6 | G,2 F,2 F,2 | E,4 E,2 | E,4 B,,2 |[M:2/4] E,2 A,,2 |[M:3/4] E,6 | %7
 E,2 E,2 E,2 | E,6 | G,2 F,2 F,2 | E,4 E,2 | E,4 E,2 |[M:2/4] A,,2 A,,2 |[M:4/4] E,6 E,2 | %14
[M:3/4] E,4 D,2 | C,4 G,,2 |[M:2/4] A,,2 A,,2 |[M:3/4] E,4 E,2 | A,,4 C,2 |[M:2/4] D,2 D,2 | %20
[M:4/4] A,,6 A,,2 |[M:3/4] A,,4 A,,2 | C,4 C,2 | A,,2 F,,4 | C,4 C,2 |[M:4/4] F,,2 F,,2 A,,2 A,,2 | %26
 E,8 |] %27

